X:1
T:The Seven Joys of Mary
M:6/8
L:1/8
K:F
 C| FFF c2 c| A2 A G2 C| F2 F A2 B| c3- c2 c| F2 F c2 c| A3 G2 C| F2 F A2 B|\
 c3- c2 c| _e2 d B2 d| f6| c3 ccd| c2 A F2 C| F2- A- B2 G| A6| F2 A cdc|\
 f2 d c2 A| F2 A B2 G| F3- F2||

